public/explore-jobs-by-cat-wave-bg.svg

<svg width="1937" height="1342" fill="none" xmlns="http://www.w3.org/2000/svg"><path fill-rule="evenodd" clip-rule="evenodd" d="m1937 213.333-108.15 19.371c-106.53 19.37-322.83 58.111-537.52 38.74-214.68-19.37-430.979-96.851-645.663-145.277C430.983 77.741 214.684 58.37 108.149 48.685L0 39v523h1937V213.333Z" fill="#09F" fill-opacity=".05"/><path fill-rule="evenodd" clip-rule="evenodd" d="M108.149 193.704 0 174.333V1342h1937V0l-108.15 9.685-3.18.29c-107.62 9.78-321.77 29.243-534.34 77.192-71.2 16.06-142.57 35.317-214.01 54.589-143.964 38.838-288.169 77.742-431.653 90.688-214.685 19.371-430.983-19.37-537.518-38.74Z" fill="#D4F0FC" fill-opacity=".6"/></svg>

<svg width="1937" height="1342" viewBox="0 0 1937 1342" fill="none" xmlns="http://www.w3.org/2000/svg">
<path fill-rule="evenodd" clip-rule="evenodd" d="M1937 213.333L1828.85 232.704C1722.32 252.074 1506.02 290.815 1291.33 271.444C1076.65 252.074 860.351 174.593 645.667 126.167C430.983 77.7407 214.684 58.3704 108.149 48.6852L0 39V562H108.149C214.684 562 430.983 562 645.667 562C860.351 562 1076.65 562 1291.33 562C1506.02 562 1722.32 562 1828.85 562H1937V213.333Z" fill="#0099FF" fill-opacity="0.05"/>
<path fill-rule="evenodd" clip-rule="evenodd" d="M108.149 193.704L0 174.333V447V523V1342H1937V523V447V0L1828.85 9.68518L1825.67 9.97425C1718.05 19.7548 1503.9 39.2178 1291.33 87.1667C1220.13 103.227 1148.76 122.484 1077.32 141.756C933.356 180.594 789.151 219.498 645.667 232.444C430.982 251.815 214.684 213.074 108.149 193.704Z" fill="#D4F0FC" fill-opacity="0.6"/>
</svg>
